.local/share/icons/Gruvbox-Plus-Dark/actions/16/draw-geometry-show-measuring-info.svg

<svg width="16" height="16" version="1.1" xmlns="http://www.w3.org/2000/svg">
  <defs>
    <style id="current-color-scheme" type="text/css">.ColorScheme-Text { color:#ebdbb2; } .ColorScheme-Highlight { color:#458588; }</style>
  </defs>
  <path class="ColorScheme-Text" d="m8 8h1v1h-1zm3-5c-1 0-1 1-1 1v4c0 1 1 1 1 1h1c1 0 1-1 1-1v-4c0-1-1-1-1-1zm0 1h1v4h-1zm-6-1v1h1v5h1v-6zm-4-2v10h5l4 4v-4h1v4l4-4v-10zm1 1h12v8h-12z" fill="currentColor"/>
</svg>

<svg xmlns="http://www.w3.org/2000/svg" width="16" height="16" version="1.1">
 <defs>
  <style id="current-color-scheme" type="text/css">
   .ColorScheme-Text { color:#565656; } .ColorScheme-Highlight { color:#4285f4; }
  </style>
 </defs>
 <path style="fill:currentColor" class="ColorScheme-Text" d="M 8,8 H 9 V 9 H 8 Z M 11,3 C 10,3 10,4 10,4 V 8 C 10,9 11,9 11,9 H 12 C 13,9 13,8 13,8 V 4 C 13,3 12,3 12,3 Z M 11,4 H 12 V 8 H 11 Z M 5,3 V 4 H 6 V 9 H 7 V 3 Z M 1,1 V 11 H 6 L 10,15 V 11 H 11 V 15 L 15,11 V 1 Z M 2,2 H 14 V 10 H 2 Z"/>
</svg>
